public/img/svg/advantage-6.svg

<svg fill="none" height="73" viewBox="0 0 73 73" width="73" xmlns="http://www.w3.org/2000/svg"><g fill="#000"><path d="m59.4791 54.5736c-.2581 0-.5056-.1025-.688-.285-.1825-.1825-.285-.4299-.285-.688v-2.8216c0-.258.1025-.5055.285-.688.1824-.1825.4299-.285.688-.285.258 0 .5055.1025.688.285.1824.1825.2849.43.2849.688v2.8216c0 .2581-.1025.5055-.2849.688-.1825.1825-.43.285-.688.285z"/><path d="m59.4791 70.1702h-11.6757c-.258 0-.5055-.1025-.688-.285-.1824-.1825-.2849-.43-.2849-.688v-50.6919h-5.4292c-.1855 0-.367-.0531-.5233-.1528-.1564-.0998-.2809-.2422-.359-.4103-.0781-.1682-.1065-.3552-.0819-.539s.1012-.3567.2208-.4984l12.24-14.49734c.0942-.1035.209-.1862.337-.24279.128-.05658.2664-.08581.4064-.08581.1399 0 .2783.02923.4063.08581.128.05659.2428.13929.337.24279l12.24 14.49734c.1196.1417.1962.3146.2208.4984.0247.1838-.0038.3708-.0819.539-.0781.1681-.2026.3105-.3589.4103-.1563.0997-.3379.1528-.5233.1528h-5.4292v15.7622c0 .258-.1025.5055-.285.688-.1825.1824-.43.2849-.688.2849s-.5055-.1025-.688-.2849c-.1825-.1825-.285-.43-.285-.688v-16.7352c0-.258.1025-.5055.285-.688.1825-.1824.43-.2849.688-.2849h4.3074l-10.1452-12.01626-10.1452 12.01626h4.3073c.2581 0 .5056.1025.688.2849.1825.1825.285.43.285.688v50.6919h9.7297v-7.8129c0-.2581.1025-.5056.285-.688.1825-.1825.43-.285.688-.285s.5055.1025.688.285c.1825.1824.285.4299.285.688v8.7859c0 .258-.1025.5055-.285.688s-.43.285-.688.285z"/><path d="m59.4791 44.9412c-.2581 0-.5056-.1026-.688-.285-.1825-.1825-.285-.43-.285-.688v-2.8898c0-.258.1025-.5055.285-.688.1824-.1824.4299-.2849.688-.2849.258 0 .5055.1025.688.2849.1824.1825.2849.43.2849.688v2.8898c0 .258-.1025.5055-.2849.688-.1825.1824-.43.285-.688.285z"/><path d="m17.8349 70.1702h-11.67565c-.25805 0-.50553-.1025-.68799-.285-.18247-.1824-.28498-.4299-.28498-.688v-28.2162c0-.258.10251-.5055.28498-.688.18246-.1824.42994-.2849.68799-.2849h11.67565c.2581 0 .5056.1025.688.2849.1825.1825.285.43.285.688v28.2162c0 .2581-.1025.5056-.285.688-.1824.1825-.4299.285-.688.285zm-10.70267-1.9459h9.72977v-26.2703h-9.72977z"/><path d="m38.6555 70.1702h-11.6757c-.258 0-.5055-.1025-.688-.285s-.285-.4299-.285-.688v-38.6815c0-.2581.1025-.5055.285-.688s.43-.285.688-.285h11.6757c.258 0 .5055.1025.688.285.1824.1825.285.4299.285.688v38.6815c0 .2581-.1026.5055-.285.688-.1825.1825-.43.285-.688.285zm-10.7027-1.946h9.7297v-36.7355h-9.7297z"/></g></svg>

<svg width="73" height="73" viewBox="0 0 73 73" fill="none" xmlns="http://www.w3.org/2000/svg">
<path d="M59.4791 54.5736C59.221 54.5736 58.9735 54.4711 58.7911 54.2886C58.6086 54.1061 58.5061 53.8587 58.5061 53.6006V50.779C58.5061 50.521 58.6086 50.2735 58.7911 50.091C58.9735 49.9085 59.221 49.806 59.4791 49.806C59.7371 49.806 59.9846 49.9085 60.1671 50.091C60.3495 50.2735 60.452 50.521 60.452 50.779V53.6006C60.452 53.8587 60.3495 54.1061 60.1671 54.2886C59.9846 54.4711 59.7371 54.5736 59.4791 54.5736Z" fill="black"/>
<path d="M59.4791 70.1702H47.8034C47.5454 70.1702 47.2979 70.0677 47.1154 69.8852C46.933 69.7027 46.8305 69.4552 46.8305 69.1972V18.5053H41.4013C41.2158 18.5053 41.0343 18.4522 40.878 18.3525C40.7216 18.2527 40.5971 18.1103 40.519 17.9422C40.4409 17.774 40.4125 17.587 40.4371 17.4032C40.4617 17.2194 40.5383 17.0465 40.6579 16.9048L52.8979 2.40746C52.9921 2.30396 53.1069 2.22126 53.2349 2.16467C53.3629 2.10809 53.5013 2.07886 53.6413 2.07886C53.7812 2.07886 53.9196 2.10809 54.0476 2.16467C54.1756 2.22126 54.2904 2.30396 54.3846 2.40746L66.6246 16.9048C66.7442 17.0465 66.8208 17.2194 66.8454 17.4032C66.8701 17.587 66.8416 17.774 66.7635 17.9422C66.6854 18.1103 66.5609 18.2527 66.4046 18.3525C66.2483 18.4522 66.0667 18.5053 65.8813 18.5053H60.4521V34.2675C60.4521 34.5255 60.3496 34.773 60.1671 34.9555C59.9846 35.1379 59.7371 35.2404 59.4791 35.2404C59.2211 35.2404 58.9736 35.1379 58.7911 34.9555C58.6086 34.773 58.5061 34.5255 58.5061 34.2675V17.5323C58.5061 17.2743 58.6086 17.0268 58.7911 16.8443C58.9736 16.6619 59.2211 16.5594 59.4791 16.5594H63.7865L53.6413 4.54314L43.4961 16.5594H47.8034C48.0615 16.5594 48.309 16.6619 48.4914 16.8443C48.6739 17.0268 48.7764 17.2743 48.7764 17.5323V68.2242H58.5061V60.4113C58.5061 60.1532 58.6086 59.9057 58.7911 59.7233C58.9736 59.5408 59.2211 59.4383 59.4791 59.4383C59.7371 59.4383 59.9846 59.5408 60.1671 59.7233C60.3496 59.9057 60.4521 60.1532 60.4521 60.4113V69.1972C60.4521 69.4552 60.3496 69.7027 60.1671 69.8852C59.9846 70.0677 59.7371 70.1702 59.4791 70.1702Z" fill="black"/>
<path d="M59.4791 44.9412C59.221 44.9412 58.9735 44.8386 58.7911 44.6562C58.6086 44.4737 58.5061 44.2262 58.5061 43.9682V41.0784C58.5061 40.8204 58.6086 40.5729 58.7911 40.3904C58.9735 40.208 59.221 40.1055 59.4791 40.1055C59.7371 40.1055 59.9846 40.208 60.1671 40.3904C60.3495 40.5729 60.452 40.8204 60.452 41.0784V43.9682C60.452 44.2262 60.3495 44.4737 60.1671 44.6562C59.9846 44.8386 59.7371 44.9412 59.4791 44.9412Z" fill="black"/>
<path d="M17.8349 70.1702H6.15925C5.9012 70.1702 5.65372 70.0677 5.47126 69.8852C5.28879 69.7028 5.18628 69.4553 5.18628 69.1972V40.981C5.18628 40.723 5.28879 40.4755 5.47126 40.293C5.65372 40.1106 5.9012 40.0081 6.15925 40.0081H17.8349C18.093 40.0081 18.3405 40.1106 18.5229 40.293C18.7054 40.4755 18.8079 40.723 18.8079 40.981V69.1972C18.8079 69.4553 18.7054 69.7028 18.5229 69.8852C18.3405 70.0677 18.093 70.1702 17.8349 70.1702ZM7.13223 68.2243H16.862V41.954H7.13223V68.2243Z" fill="black"/>
<path d="M38.6555 70.1702H26.9798C26.7218 70.1702 26.4743 70.0677 26.2918 69.8852C26.1093 69.7027 26.0068 69.4553 26.0068 69.1972V30.5157C26.0068 30.2576 26.1093 30.0102 26.2918 29.8277C26.4743 29.6452 26.7218 29.5427 26.9798 29.5427H38.6555C38.9135 29.5427 39.161 29.6452 39.3435 29.8277C39.5259 30.0102 39.6285 30.2576 39.6285 30.5157V69.1972C39.6285 69.4553 39.5259 69.7027 39.3435 69.8852C39.161 70.0677 38.9135 70.1702 38.6555 70.1702ZM27.9528 68.2242H37.6825V31.4887H27.9528V68.2242Z" fill="black"/>
</svg>
